X: 1084
T: Hâfız`ın Kabri
C: Münir Nurettin Selçuk
O: Turkey
F: http://compmusic.upf.edu/node/140
N: rast--sarki--senginsemai--hafizin_kabri--munir_nurettin_selcuk
N: makam= rast
N: form= sarki
N: usul= senginsemai = 6/4
M: 6/4
L: 1/16
K: C _1/4B ^f  
Q: 1/4=63
%%MIDI tuningsystem comma53
G3G G4 G4 A3c B3A G4  | A3A A4 B4 G3/2F/EF G6z2  | \
w:  ARANAĞME  |   | 
G3G G4 G4 A3c B3A G4  | 
w:  ARANAĞME  | 
A3A A4 B4 G3/2F/EF G6z2  | G3G G4 z4 G2G2 G6z2  | \
w:   |   | 
G3G G4 G4 A2BA AGGF G4  | 
w:  Hâ fı zın kab ri o *  lan *  *  *  bah  | 
A2c2 B2A2 G2F2 FEEF G6z2  | G2B2 B4 B4 A2B2 c2cB B4  | 
w:  çe de bir *  gül *  var *  *  *  mış  |  Ye ni den her gün_ a çar *  *  mış  | 
B2d2 c3B B3A AGGA B6z2  | G2d2 d4 d4 c2=f2 e3d d3c  | 
w:  ka na yan *  ren *  giy *  *  *  le  |  Ge ce bül bül a ğa ran *  vak  | 
c2cB B3A A3G G2{f}ed d4 z4  | c2e2 e3d {c}c4 B2d2 d3c {B}B3A  | 
w:  te ka *  dar *  ağ *  lar *  *  *  mış  |  Es ki Şi *  *  râ zı ha yâl_ *  *  et  | 
A2c2 c2B2 B2A2 AG{B}AG G6z2  | c2e2 e3d {c}c2z2 B2d2 d3c {B}B3A  | 
w:  ti ren â *  hen *  giy *  *  *  *  le  |  SAZ  | 
A2c2 c3B B3A AG{B}AG G4 d4  | G2d2 d4 d4 e2{g}=fe edd^c d4  | 
w:   |  Ö lüm â sû de *  ba *  har *  *  *  ül  | 
e2g2 =f3e d3^c =B3c d6z2  | d2f2 f4 f3e e2f2 g2fg a3g  | 
w:  ke si dir *  bir *  rin *  de  |  Gön lü her yer *  de bu hur *  *  dan  | 
f2d2 e2g2 =f2e2 d3/2^c/=Bc d6z2  | \
w:  gi bi yıl *  lar *  ca *  tü *  ter  | 
z4 e2g2 =f2e2 d^c=Bc d6z2  | 
w:  SAZ  | 
d2ef g4 g4 g2c'2 c'3b b3a  | a2ag g3f f2e2 agfe d6z2  | 
w:  Ve se *  rin sel vi ler al *  tın  |  da ka *  lan *  kab *  rin *  *  de  ah    | 
c3d e4 e3d =f2ed d6z2  | c4 c2c2 c2B2 c2B2 c2B2 c2B2  | 
w:  Her se her bir *  gül_ a *  çar  |  her ge ce bir *  bül  | 
=f6ed d3c c2cB B6z2  | G2B2 B4 B4 G2B2 B4 B4  | \
w:  *  *  *  *  *  bül_ ö *  ter    |  SAZ  | 
B2=f2 e3d d3c c2{d}cB B6z2  | 
w:   | 
c2e2 e3d c2z2 B2d2 d3c B4  | A2c2 c3B B3A A2{c}BA A4 z4  | 
w:  Ve *  se rin sel vi ler_ al *  tın  |  da ka lan *  kab *  rin *  *  *  de  | 
G3A A4 A3G c2BA A8  | z4 c2BA A6z2 G3A A2A2  | \
w:  Her se her bir *  gül a *  çar  |  SAZ *  *  *  her *  ge ce  | 
A2c2 B2A2 G3F E2F2 G6z2  | 
w:  bir *  *  *  bül *  bül_ ö ter  | 
G3A A2A2 A2c2 B2A2 G3F E2F2  | G16 z8  | |


